X: 30956
T: Owny's Best
R: jig
M: 6/8
K: Emajor
|:f|gec BGE|EGB efg|fcc cag|fcc caf|
gec BGE|EGB efg|1 fee efg|fee e2:|2 fed efg|fee e2-|
e|bge BGE|bge bge|aff fge|dBB Bcd|
ege BGB|cAc a3|gfe edc Bcd e2|
g|bge BGE|bge bge|aff fge|dBB Bcd|
ege BGB|cAc aba|gfe edc|Bcd e2|

